!!!!SEGMENT: pl-kj--bj-muz-6275-iv--001_zelenski-wladyslaw--piesni-z-muzyka-op-26-tesknota-za-zima.krn
!!!cenid: 18xx:3705
!!!COM: Żeleński, Władysław
!!!COM-rismID: pe41024455
!!!CDT: 1837/07/06-1921/01/23
!!!CNT: Polish
!!!GTL: Pieśni z muzyką op. 26
!!!OTL: Tęsknota za zimą
!!!PDT: 1880
!!!AGN:
!!!SMS-siglum: PL-Kj
!!!SMS-shelfmark: BJ Muz. 6275 IV
!!!SMS-shelfwork: 001 G
!!!SMS-variant:
!!!SMS-altvar:
!!!NIFC-rismSourceID:
!!!NIFC-rismChildID:
!!!NIFC-islandoraID:
!!!URL-pdf-islandora:
!!!URL-scan: https://polona.pl/item/z-teki-jozefa-koscielskiego-piesni-z-muzyka-op-26,Nzg3MjQzMDY/0 @EN{Scan on Polona} @PL{Skany w portalu Polona}
!!!ONB-nifc:
!!!AIN: 1 piano 1 vox
!!!key: c
**kern	**kern	**dynam	**kern	**text	**dynam
*part2	*part2	*part2	*part1	*part1	*part1
*staff3	*staff2	*	*staff1	*staff1	*
*I"Fortepian.	*I"Fortepian.	*	*I"Śpiew.	*	*
*Ipiano	*Ipiano	*	*Ivox	*	*
*ICklav	*ICklav	*	*ICvox	*	*
*IGacmp	*IGacmp	*	*IGsolo	*	*
*clefF4	*clefG2	*	*clefG2	*	*
*k[b-e-a-]	*k[b-e-a-]	*	*k[b-e-a-]	*	*
*c:	*c:	*	*c:	*	*
*M12/8	*M12/8	*	*M12/8	*	*
=	=	=	=	=	=
*^	*	*	*	*	*
!LO:TX:b=2:i:t=molto legato	!	!	!	!LO:TX:a:t=Andante sostenuto.	!	!
8ryy	8r	(>4.g 4.e-/	pp	2.r	.	.
!LO:N:vis=4	!	!	!	!	!	!
8C/	8C\L	.	.	.	.	.
8c/	8c\J	.	.	.	.	.
4B-/	8B-\L	4.f#X 4.d/	.	.	.	.
.	8C\	.	.	.	.	.
8A-/	8A-\J	.	.	.	.	.
=1	=1	=1	=1	=1	=1	=1
*	*	*^	*	*	*	*
4G/	8G\L	4.g 4.e-/	2.ryy	<	1.r	.	.
.	8C\	.	.	.	.	.	.
8c/	8c\J	.	.	.	.	.	.
4B-/	8B-\L	4.f#X 4.d/	.	.	.	.	.
.	8C\	.	.	.	.	.	.
8An/	8An\J	.	.	.	.	.	.
4A-X/	8A-\L	4.fn^ 4.d-X/	4.ryy	.	.	.	.
.	8D-X\	.	.	.	.	.	.
4A-/	8A-\J	.	.	.	.	.	.
.	8AA-\L	4.e-/	4c\	.	.	.	.
4E-/	8E-\	.	.	.	.	.	.
.	8GG\J	.	8B-\	.	.	.	.
=2	=2	=2	=2	=2	=2	=2	=2
4F/	4.FF\	8e-/L	[4.A-\	.	1.r	.	.
.	.	8d-X/	.	.	.	.	.
8E-/	.	8c/J	.	.	.	.	.
[4.D/	[4.GG\	(4.Bn/	8A-\L]	.	.	.	.
.	.	.	8G\	[	.	.	.
.	.	.	8qB-X/	.	.	.	.
.	.	.	8A-\J	>	.	.	.
!	!	!LO:N:vis=4	!	!	!	!	!
8D/]	8GG\]	8Bn/))	(2.G\	.	.	.	.
8r	8ryy	8r	.	]	.	.	.
8r	8ryy	8r	.	.	.	.	.
4r	4ryy	4r	.	.	.	.	.
8r	8ryy	8r	.	.	.	.	.
*	*	*v	*v	*	*	*	*
!!LO:LB:g=original
=3	=3	=3	=3	=3	=3	=3
4.ryy	8rA	4.g 4.e-/)	pp	4r	.	.
.	8C\L	.	.	.	.	.
.	8c\J	.	.	8r	.	.
!	!	!	!	!	!	!LO:DY:a
4.G/	8G\L	4.g 4.e-/	.	8g/	W ser-	p
.	8C\	.	.	8f/	-cu	.
.	8c\J	.	.	8e-/	mém	.
4.A-/	8A-\L	4r	.	4.a-/	je-	.
.	8C\	.	.	.	.	.
.	8c\J	8r	.	.	.	.
4.A-/	8A-\L	(4.f#X 4.d/	>	4.a-/	-sień;	.
.	8C\	.	.	.	.	.
.	8c\J	.	]	.	.	.
=4	=4	=4	=4	=4	=4	=4
4.G/	8G\L	4.g 4.e-/)	.	4g/	cień	.
.	8C\	.	.	.	.	.
.	8c\J	.	.	8g/	twój	.
4.G/	8G\L	4.g 4.e-/	.	8g/L	ni-	.
.	8C\	.	.	8f/J	.	.
.	(>8c\J	.	.	8e-/	-kły,	.
4B-/	8B-\L)	4r	.	4.b-\	bla	.
.	8C\	.	.	.	.	.
(8B-/	8B-\J	8r	.	.	.	.
4A-/)	8A-\L	(4.f#X (4.d/	.	4.a-/	dy,	.
.	8C\	.	.	.	.	.
(8A-/	8A-\J	.	.	.	.	.
!!LO:LB:g=original
=5	=5	=5	=5	=5	=5	=5
*	*	*^	*	*	*	*
!	!	!	!	!	!	!	!LO:DY:a
4G/)	8G\L	([4.g/))	[4.e-\	<	8g/	su-	<
.	8C\	.	.	.	8g/	-nąć	.
[8c/	8c\J	.	.	.	8g/	w niem,	.
4c/]	8E-\L	4g/]	4e-\]	.	8g/	liść-	.
.	8BB-\	.	.	.	8a-/	-mi	.
[8B-/	8B-\J	8g/	8d\	.	8b-\	ze-	.
4B-/]	8E-\L	4g/	[2.c\	.	4.cc\	-schłe-	.
.	8AA-\	.	.	.	.	.	.
8A-/	8A-\J	8f/	.	.	.	.	.
4E-/	8E-\L	4.e-/	.	.	4cc\	-mi	.
.	8GG\	.	.	.	.	.	.
8B-/	8B-\J	.	.	[[	8cc\	sze-	[[
=6	=6	=6	=6	=6	=6	=6	=6
!	!	!	!LO:TX:a:i:t=un poco	!	!	!	!LO:DY:a
4A-/	8A-\L	8d/)	8c\]	.	([4.dd\	-le-	>
.	8FF\	8r	8ryy	.	.	.	.
!	!	!	!	!LO:DY:a	!	!	!
8A-/	8A-\J	(>[>8cc [<8c/	8ryy	sfz >	.	.	.
4C/	8C\L	4cc/]	4.c\_	.	8dd\L]	.	.
.	8FF\	.	.	.	8cc\)	.	.
8A-/	8A-\J	8d/	.	.	8a-\J	.	.
4D/	8D\L	4f^/	(4.c\]	.	(4.g/	-ści-	.
.	8GG\	.	.	.	.	.	.
8G/	8G\J	8e-/	.	.	.	.	.
4F/	8F\L	4d/)	4Bn\)	]	8g/)	-;	.
.	8GG\	.	.	.	8r	.	]
8G/	[8G\J	8r	8ryy	.	8g/	To	.
!!LO:PB:g=original
=7	=7	=7	=7	=7	=7	=7	=7
!	!	!	!	!	!LO:TX:a:i:t=espress.	!	!
4.G/	8G\L]	4r	4.ryy	.	4g/	liś-	.
.	8C\	.	.	.	.	.	.
.	8c\J	(>[8ee- (8e-^/	.	.	8g/	-cie	.
!	!	!	!	!	!	!	!LO:HP:a
4.G/	8G\L	8ee-/L]	4.e-\)	.	8g/	spa-	<
.	8C\	8a-/	.	.	8f/	-dłych	.
.	8c\J	8g/J)	.	.	8e-/	o-	.
4.A-/	8A-\L	(2.f#X/	4d\	<	4.a-/	-ma-	.
.	8C\	.	.	.	.	.	.
.	.	.	8qfn/	[ >	.	.	.
.	8c\J	.	8e-\	.	.	.	.
!	!	!	!	!	!	!	!LO:DY:a
4.A-/	8A-\L	.	4.d\	.	4a-/	-mień,	[ >
.	8C\	.	.	]	.	.	.
.	8c\J	.	.	.	8a-/	to	]]
=8	=8	=8	=8	=8	=8	=8	=8
!	!	!	!	!	!	!	!LO:HP:t=cresc.
4.G/	8G\L	8g) 8e-/	4.ryy	.	4g/	śla-	<
.	8C\	8r	.	.	.	.	.
.	8c\J	(>[>8ee- [<8e-^/	.	.	8g/	-dy	.
4G/	8G\L	8ee-/L]	4.e-\]	<	8g/	Nie-	.
.	8C\	8a-/	.	.	8f/	-gdyś	.
8B-/	8B-\J	8g/J)	.	.	8e-/	roz-	.
4A-/	8A-\L	(4f/	(4.d-X\	.	4.f/	-ko-	.
.	8C\	.	.	.	.	.	.
.	.	8qa-/	.	.	.	.	.
(8A-/	8A-\J	8g/	.	.	.	.	.
4G/)	8G\L	4f/	4.d-\	.	4f/	-szy,	.
.	8BB-\	.	.	.	.	.	.
8G/	8G\J	8e-/)	.	[[	8e-/	dziś	.
!!LO:LB:g=original
=9	=9	=9	=9	=9	=9	=9	=9
!	!	!	!	!LO:HP:a:t=cresc.	!	!	!
4E-/	8E-\L	8e-/	8c\)	<	[4.cc\	świad-	.
.	8AA-\	8r	4ryy	.	.	.	.
[8A-/	8A-\J	(>[>8cc [<8c^/	.	.	.	.	.
4A-/]	8E-\L	8cc/L]	4c\]	.	8cc\]	.	.
.	8GG\	8e-/	.	.	8cc\	-ki	.
(8B-/	8B-\J	8ccJ 8c/)	8c\	.	8cc\	bo-	.
4An/)	8A\L	4r	4.ryy	.	4.ee-\	-le-	.
.	8FF#X\	.	.	.	.	.	.
(8A/	8A\J	(>[>8cc [<8c/	.	.	.	.	.
4D/)	8D\L	8cc/L]	4c\]	.	4dd\	-ści;	.
.	8FF#\	8d/	.	.	.	.	.
(8A/	8A\J	8ccJ) 8c/	8ryy	.	8cc\	dziś	.
*	*	*v	*v	*	*	*	*
=10	=10	=10	=10	=10	=10	=10
4D/)	8D\L	4r	.	[4.b-\	świad-	.
.	8GG\	.	.	.	.	.
[8G/	8G\J	(>[8b- 8B-^/	.	.	.	.
!	!	!	!LO:HP:t=dimin.	!	!	!
8G/]	8C\L	8b-]L 8B-/	>	8b-\]	.	.
!	!	!	!	!	!	!LO:HP:t=dimin.
1ryy	8E-\	8e-/	.	8a-/	-ki	<
.	8C\J	8a-J 8c/	.	8e-/	bo-	.
.	4.D\	8gL 8B-/	.	(4.g/	-le-	.
.	.	8d/	.	.	.	.
.	.	8gJ 8B-/	.	.	.	.
.	4.DD/	8f#XL 8c/	.	4.f#X/)	.	.
.	.	8d/	.	.	.	.
.	.	8f#J 8c/)	.	.	.	.
!!LO:LB:g=original
=11	=11	=11	=11	=11	=11	=11
*	*^	*	*	*	*	*
8rGGyy	8rA	4ryy	(4.dd 4.b-\	pp	4g/	-ści.	.
4G/	8G\L	.	.	.	.	.	.
.	8g\J	8g/	.	.	8r	.	.
4f/	8f\L	8ryy	4.cc#X 4.an\	<	4r	.	.
.	8G\	4G/	.	.	.	.	.
8e-/	8e-\J	.	.	.	8r	.	.
4d/	8d\L	8ryy	4.dd 4.b-\	.	2.r	.	.
.	8G\	4G/	.	.	.	.	.
8g/	8g\J	.	.	.	.	.	.
4f/	8f\L	8ryy	4.cc# 4.a\)	.	.	.	.
.	8G\	4G/	.	.	.	.	.
8en/	8e\J	.	.	.	.	.	.
=12	=12	=12	=12	=12	=12	=12	=12
*	*	*	*^	*^	*	*	*
!	!	!	!	!	!	!LO:DY:a	!	!	!
4e-X/	8e-\L	8ryy	([4.ccn/	4a-X\	.	sfz	2.r	.	.
.	8A-\	4A-/	.	.	.	.	.	.	.
8e-/	8e-\J	.	.	8g\	.	.	.	.	.
4d/	8d\L	8ryy	8cc/L]	4.f#X\	.	.	.	.	.
.	8D\	4D/	8b-/	.	.	.	.	.	.
8c/	8c\J	.	8an/J)	.	[	.	.	.	.
*	*	*	*tremolo	*	*	*	*	*	*
8B- 8G\	2.ryy	4ryy	16g/LL	2ryy	>	.	4r	.	.
.	.	.	16g/	.	.	.	.	.	.
8r	.	.	16g/	.	.	.	.	.	.
.	.	.	16g/	.	.	.	.	.	.
8r	.	8ryy	16g/	.	.	.	8r	.	.
.	.	.	16g/JJ	.	.	.	.	.	.
!	!	!	!	!	!	!	!LO:TX:a:i:t=un poco piu	!	!LO:DY:a
4r	.	4ryy	16g/LL	.	.	.	8g/	Wsłu-	p
.	.	.	16g/	.	.	.	.	.	.
.	.	.	16g/	4ryy	.	.	8g/	-chaj	.
.	.	.	16g/	.	]	.	.	.	.
8r	.	8ryy	16g/	.	.	.	8g/	się	.
.	.	.	16g/JJ	.	.	.	.	.	.
*	*	*	*	*	*v	*v	*	*	*
*v	*v	*v	*	*	*	*	*	*
*	*v	*v	*	*	*	*
!!LO:LB:g=original
=13	=13	=13	=13	=13	=13
!	!	!	!LO:TX:a:i:t=mosso	!	!
8r	16a-LL 16g/	.	8a-/	w sze-	.
.	16a- 16g/	.	.	.	.
(8f\L	16a- 16g/	.	8a-/	-lest	.
.	16a- 16g/	.	.	.	.
!	!	!LO:HP:b=2:t=cresc. poco a poco	!	!	!LO:HP:a:t=cresc.poco a poco
8e-\J	16a- 16g/	<	8a-/	tych	<
.	16a-JJ 16g/	.	.	.	.
8d\L	16a-LL 16f/	.	8a-/	zes-	.
.	16a- 16f/	.	.	.	.
8e-\	16a- 16f/	.	8a-/	-chłych	.
.	16a- 16f/	.	.	.	.
8c\J	16a- 16f/	.	8cc\	pa-	.
.	16a-JJ 16f/	.	.	.	.
[4.d\	16ccLL 16a- 16f/	.	8cc\	-mią-	.
.	16cc 16a- 16f/	.	.	.	.
.	16b- 16a- 16f/	.	8b-\	-tek,	.
.	16b- 16a- 16f/	.	.	.	.
.	16b- 16a- 16f/	.	8r	.	.
.	16b-JJ 16a- 16f/	.	.	.	.
*	*Xtremolo	*	*	*	*
8d\])	16b-LL 16a- 16f/	.	8b-\	wsłu-	.
.	16b-/	.	.	.	.
8r	16b-/	.	8b-\	-chaj	.
.	16b-/	.	.	.	.
8r	16b-/	.	8b-\	się	.
.	16b-/JJ	.	.	.	.
=14	=14	=14	=14	=14	=14
*	*tremolo	*	*	*	*
8r	16ccLL 16b-\	.	8cc\	w sze-	.
.	16cc 16b-\	.	.	.	.
(8a-\L	16cc 16b-\	.	8cc\	-lest	.
.	16cc 16b-\	.	.	.	.
8g\J	16cc 16b-\	.	8cc\	tych	.
.	16ccJJ 16b-\	.	.	.	.
8f\L	16ccLL 16a-\	.	8cc\	zes-	.
.	16cc 16a-\	.	.	.	.
8g\	16cc 16a-\	.	8cc\	-chłych	.
.	16cc 16a-\	.	.	.	.
8e-\J	16cc 16a- 16g\	.	8ff\	pa-	.
.	16ccJJ 16a- 16g\	.	.	.	.
[4.d\	16ffLL 16cc 16a- 16f\	.	4.ff\	-mią-	.
.	16ff 16cc 16a- 16f\	.	.	.	.
.	16ff 16cc 16a- 16f\	.	.	.	.
.	16ff 16cc 16a- 16f\	.	.	.	.
.	16ff 16cc 16a- 16f\	.	.	.	.
.	16ffJJ 16cc 16a- 16f\	.	.	.	.
8d\])	16b-LL 16a- 16f/	.	4.b-\	-tek,	.
.	16b- 16a- 16f/	.	.	.	.
8r	16b- 16a- 16f/	.	.	.	.
.	16b- 16a- 16f/	.	.	.	.
8r	16b- 16a- 16f/	.	.	.	.
.	16b-JJ 16a- 16f/	.	.	.	.
!!LO:PB:g=original
=15	=15	=15	=15	=15	=15
*ped	*	*	*	*	*
!	!	!	!LO:TX:a:i:t=sonore ma più tranquillo	!	!
4.EE-/	16b-LL 16g 16e-/	mf	[4.b-\	Mo-	.
.	16b- 16g 16e-/	.	.	.	.
.	16b- 16g 16e-/	.	.	.	.
.	16b- 16g 16e-/	.	.	.	.
.	16b- 16g 16e-/	.	.	.	.
.	16b- 16g 16e-/	.	.	.	.
!LO:TX:b:i:t=cantando molto	!	!	!	!	!
(4.d-X\	16b- 16g 16e-/	.	8b-\]	.	.
.	16b- 16g 16e-/	.	.	.	.
.	16b- 16g 16e-/	.	8a-/	-że	.
.	16b- 16g 16e-/	.	.	.	.
.	16b- 16g 16e-/	.	8g/	u	.
.	16b-JJ 16g 16e-/	.	.	.	.
4.c\	16ee-LL 16a- 16e-/	.	4.ee-\	sły-	.
*Xped	*	*	*	*	*
.	16ee- 16a- 16e-/	.	.	.	.
.	16ee- 16a- 16e-/	.	.	.	.
.	16ee- 16a- 16e-/	.	.	.	.
.	16ee- 16a- 16e-/	.	.	.	.
.	16ee-JJ 16a- 16e-/	.	.	.	.
4.B-\)	16ee-LL 16g 16e-/	.	4.g/	-szysz	.
.	16ee- 16g 16e-/	.	.	.	.
.	16ee- 16g 16e-/	.	.	.	.
.	16ee-JJ 16g 16e-/	.	.	.	.
*	*Xtremolo	*	*	*	*
.	16gLL 16e-/	.	.	.	.
.	16gJJ 16e-/	.	.	.	.
=16	=16	=16	=16	=16	=16
*ped	*tremolo	*	*	*	*
4.EE-/	16gLL 16e- 16c 16An/	.	4g/	dal-	.
.	16g 16e- 16c 16A/	.	.	.	.
.	16g 16e- 16c 16A/	.	.	.	.
.	16g 16e- 16c 16A/	.	.	.	.
.	16g 16e- 16c 16A/	.	8g/	-sze	.
.	16gJJ 16e- 16c 16A/	.	.	.	.
(4.A-X\	16gLL 16d 16c-X/	.	8g/L	stro-	.
*Xped	*	*	*	*	*
.	16g 16d 16c-/	.	.	.	.
.	16en 16d 16c-/	.	8en/J	.	.
.	16e 16d 16c-/	.	.	.	.
.	16f 16d 16c-/	.	8f/	-fy	.
.	16fJJ 16d 16c-/	.	.	.	.
4.G\	16b-LL 16e-X 16B-/	.	4.b-\	pie-	.
.	16b- 16e- 16B-/	.	.	.	.
.	16b- 16e- 16B-/	.	.	.	.
.	16b- 16e- 16B-/	.	.	.	.
.	16b- 16e- 16B-/	.	.	.	.
.	16b-JJ 16e- 16B-/	.	.	.	.
4.GG/)	16b-LL 16e- 16B-/	.	4.b-\	-nia,	.
.	16b- 16e- 16B-/	.	.	.	.
.	16b- 16e- 16B-/	.	.	.	.
.	16b- 16e- 16B-/	.	.	.	.
.	16b- 16e- 16B-/	.	.	.	.
.	16b-JJ 16e- 16B-/	.	.	.	.
*	*Xtremolo	*	*	*	*
!!LO:LB:g=original
=17	=17	=17	=17	=17	=17
*^	*^	*	*	*	*
!	!	!LO:TX:b:i:t=con gran espressione	!	!	!LO:TX:a:i:t=con gran espressione	!	!
(4.GG/	2ryy	(8b-/L	16b-\LL	.	8b-\	któ-	.
.	.	.	16e- 16c\	.	.	.	.
.	.	8g/	16g\	.	8g/	-re	.
.	.	.	16e- 16c\	.	.	.	.
.	.	8a-/J	16a-\	.	8a-/	tak	.
.	.	.	16e-JJ 16c\	.	.	.	.
4.BB-/)	.	8cc/L	16cc\LL	.	8cc\	śpie-	.
.	.	.	16f 16d\	.	.	.	.
.	4ryy	8b-/	16b-\	.	8b-\	-wny	.
.	.	.	16f 16d\	.	.	.	.
.	.	8a-/J)	16a-\	.	8a-/	czer-	.
.	.	.	16fJJ 16d\	.	.	.	.
!LO:N:vis=2	!	!	!	!	!	!	!
8BBn/L	2.BBn\	[4.g/	16g\KL	.	4.g/	-pa-	.
.	.	.	8f 8d\	.	.	.	.
(<8F#X/	.	.	.	.	.	.	.
.	.	.	8f 8d\	.	.	.	.
8G/J	.	.	.	.	.	.	.
.	.	.	16fJk 16d\	.	.	.	.
8fn/L	.	16g/KL]	4ryy	.	4g/	-ło	.
.	.	8g/	.	.	.	.	.
8e-/	.	.	.	.	.	.	.
.	.	8g/	.	.	.	.	.
8d/J)	.	.	8ryy	.	8g/	tak	.
.	.	16gJk 16f/	.	.	.	.	.
=18	=18	=18	=18	=18	=18	=18	=18
2.C/	2ryy	(8b-/L	16b-\LL	.	8b-\	śpie-	.
.	.	.	16e- 16c\	.	.	.	.
.	.	8g/	16g\	.	8g/	-wny	.
.	.	.	16e- 16c\	.	.	.	.
.	.	8a-/J	16a-\	.	8a-/	czer-	.
.	.	.	16e-JJ 16c\	.	.	.	.
.	.	8ee-/L	16ee-\LL	.	8ee-\	-pa-	.
.	.	.	16a- 16e-\	.	.	.	.
.	4ryy	8dd/	16dd\	.	8dd\	-ło	.
.	.	.	16a- 16e-\	.	.	.	.
.	.	8cc/J)	16cc\	.	8cc\	po-	.
.	.	.	16a-JJ 16e-\	.	.	.	.
!LO:N:vis=2	!	!	!	!	!	!	!
8D/L	2.D\	[4.b-/	16g\KL	.	4.b-\	-czą-	.
.	.	.	8a- 8f\	.	.	.	.
(<8An/	.	.	.	.	.	.	.
.	.	.	8a- 8f\	.	.	.	.
8B-/J	.	.	.	.	.	.	.
.	.	.	16a-Jk 16f\	.	.	.	.
8a-X/L	.	16b-/KL]	4ryy	.	4.b-\	-tek	.
.	.	8b-/	.	.	.	.	.
8g/	.	.	.	.	.	.	.
.	.	8b-/	.	.	.	.	.
8f/J)	.	.	8ryy	.	.	.	.
.	.	16b-Jk 16a-/	.	.	.	.	.
*v	*v	*	*	*	*	*	*
*	*v	*v	*	*	*	*
!!LO:LB:g=original
=19	=19	=19	=19	=19	=19
!	!LO:TX:b:i:t=un poco rubato	!	!LO:TX:a:i:t=un poco rubato	!	!
4d-X: 4E-: 4D-X:\	4ee-: 4b-: 4g: 4e-:/	.	8b-\	W wio-	.
.	.	.	8g/	-sny	.
8r	8r	.	8e-/	za-	.
4c: 4F: 4C:\	4ee-: 4an: 4e-:/	.	8f/	-chwy-	.
.	.	.	8g/	-tach	.
8r	8r	.	8an/	i	.
!	!	!	!	!	!LO:DY:a
4G: 4Dn: 4GG:/	4b-: 4g: 4dn: 4B-:/	.	8cc\L	wle-	<
.	.	.	8b-\	.	.
8r	8r	.	8a\J	.	.
4F: 4BB-: 4FF:/	4b-: 4d: 4A-X:/	.	8b-\L	-cie	.
.	.	.	8cc\J	.	.
8r	8r	.	8dd\	na-	[[
=20	=20	=20	=20	=20	=20
8qGG/	.	f	.	.	.
*	*^	*	*	*	*
!	!	!	!	!	!	!LO:DY:a
8FF/L	2.ee- 2.d-X/	[4.g\	.	4.ee-\	-tchnie-	f
8EE-/	.	.	.	.	.	.
8DDn/J	.	.	.	.	.	.
8EE-/L	.	4g\]	.	4ee-\	-nia,	.
8FF/	.	.	.	.	.	.
8GG/J	.	8b-\	.	8ee-\	i	.
2.AA-/	16ee-:LL 16a-: 16c:/	2.ryy	.	(4ff\	w le-	.
.	16cc 16a- 16e-/	.	.	.	.	.
.	16cc 16a- 16e-/	.	>	.	.	.
.	16cc 16a- 16e-/	.	.	.	.	.
!	!	!	!	!	!	!LO:DY:a
.	16cc 16a- 16e-/	.	.	[8ee-\	.	>
.	16ccJJ 16a- 16e-/	.	.	.	.	.
*	*tremolo	*	*	*	*	*
.	16a-LL 16f 16c/	.	.	8ee-\])	.	.
.	16a- 16f 16c/	.	.	.	.	.
.	16f 16c 16A-/	.	.	8cc\	-cie	.
.	16f 16c 16A-/	.	.	.	.	.
.	16e- 16c 16F/	.	.	8a-/	na-	]]
.	16e-JJ 16c 16F/	.	]	.	.	.
*	*v	*v	*	*	*	*
!!LO:LB:g=original
=21	=21	=21	=21	=21	=21
4.BB-/	16e-LL 16B- 16G/	.	(4.g/	-tchnie-	.
.	16e- 16B- 16G/	.	.	.	.
.	16e- 16B- 16G/	.	.	.	.
.	16e- 16B- 16G/	.	.	.	.
.	16e- 16B- 16G/	.	.	.	.
.	16e-JJ 16B- 16G/	.	.	.	.
4.BBB-/	16dLL 16A-/	.	4.f/)	.	.
.	16d 16A-/	.	.	.	.
.	16d 16A-/	.	.	.	.
.	16d 16A-/	.	.	.	.
.	16d 16A-/	.	.	.	.
.	16dJJ 16A-/	.	.	.	.
*	*Xtremolo	*	*	*	*
8r	(>4.g 4.e- 4.G/	.	4e-/	-nia.	.
(8BBBn/L	.	>	.	.	.
8BBn/J)	.	.	8r	.	.
8r	4.f#X 4.d 4.F#X/)	.	4r	.	.
(8C/L	.	.	.	.	.
8CC/J)	.	]]	8r	.	.
=22	=22	=22	=22	=22	=22
*	*^	*	*	*	*
8r	(4.g 4.e- 4.G/	2.ryy	>	1.r	.	.
(8BBB-X/L	.	.	.	.	.	.
8BB-X/J)	.	.	.	.	.	.
8r	4.f#X) 4.d 4.F#X/	.	]	.	.	.
(8AAn/L	.	.	.	.	.	.
8AAAn/J)	.	.	.	.	.	.
*	*clefF4	*	*	*	*	*
8r	4.fn 4.d-X 4.Fn\	4.ryy	pp	.	.	.
(8AAA-X/L	.	.	.	.	.	.
8AA-X/J)	.	.	.	.	.	.
8r	[4.e- [<4.E-\	4c\	.	.	.	.
(8GG-X/L	.	.	.	.	.	.
8GGG-X/J)	.	8B-\	.	.	.	.
=23	=23	=23	=23	=23	=23	=23
(4.FF 4.FFF/	8e-]L 8E-/]	[4.A-\	<	1.r	.	.
.	8d-X 8D-X/	.	.	.	.	.
.	8cJ 8C/	.	.	.	.	.
[4.GG [4.GGG/	[4.Bn [<4.BBn/	8A-\L]	[ >	.	.	.
.	.	8G\	.	.	.	.
.	.	8qB-X/	]	.	.	.
.	.	8A-\J	.	.	.	.
8GG] 8GGG/])	8B] 8BB/]	2.G\	pp	.	.	.
8r	8r	.	.	.	.	.
8r	8r	.	.	.	.	.
4r	4r	.	.	.	.	.
8r	8r	.	.	.	.	.
*	*clefG2	*	*	*	*	*
!!LO:PB:g=original
=24	=24	=24	=24	=24	=24	=24
*^	*	*	*	*	*	*
!	!	!	!	!	!LO:TX:a:i:t=sotto voce	!	!
4.G/	8G\L	4r	4.ryy	.	[4.g/	Dzi-	.
.	8C\	.	.	.	.	.	.
.	8c\J	[>8ee- [<8e-^/	.	.	.	.	.
4.G/	8G\L	8ee-/L]	4.e-\_	.	8g/]	.	.
.	8C\	8a-/	.	.	8f/	-siaj	.
.	8c\J	8g/J	.	.	8e-/	pod	.
4.A-/	8A-\L	(2.f#X/	16e-\LL]	<	4.a-/	sto-	.
.	.	.	16d\	.	.	.	.
.	8C\	.	16c#X\	.	.	.	.
.	.	.	16d\	.	.	.	.
.	8cn\J	.	16fn\	.	.	.	.
.	.	.	16e-\JJ	[	.	.	.
4.A-/	8A-\L	.	4.d\	>	4a-/	-pą	.
.	8C\	.	.	]	.	.	.
.	8c\J	.	.	.	8a-/	liść	.
=25	=25	=25	=25	=25	=25	=25	=25
4.G/	8G\L	8g 8e-/)	4.ryy	.	[4.g/	chwa-	.
.	8C\	8r	.	.	.	.	.
.	8c\J	[>8ee- [<8e-^/	.	.	.	.	.
4.G/	8G\L	8ee-/L]	4.e-\_	.	8g/]	.	.
.	8C\	8a-/	.	.	8f/	-szczy	.
.	8c\J	8g/J	.	.	8e-/	i	.
4.A-/	8A-\L	(2.f#X/	16e-\LL]	<	4.a-/	sy-	.
.	.	.	16d\	.	.	.	.
.	8C\	.	16c#X\	.	.	.	.
.	.	.	16d\	.	.	.	.
.	8cn\J	.	16fn\	.	.	.	.
.	.	.	16e-\JJ	[	.	.	.
4.A-/	8A-\L	.	4.d\	>	4.a-/	-czy,	.
.	8C\	.	.	]	.	.	.
.	8c\J	.	.	.	.	.	.
!!LO:LB:g=original
=26	=26	=26	=26	=26	=26	=26	=26
!	!	!LO:N:vis=4	!	!LO:HP:b=2	!	!	!LO:DY:a
4G/	8G\L	8g) 8e-/	4.ryy	<	4g/	Bu-	<
.	8C\	8r	.	.	.	.	.
[8c/	8c\J	(>[>8ee- [<8e-^/	.	.	8g/	-dząc	.
4c/]	8E-\L	8ee-/L]	4.e-\_	.	8g/	w je-	.
.	8BB-\	8a-/	.	.	8a-/	-sien	.
8B-/	8B-\J	8g/J	.	.	8b-\	nej	.
4E-/	8E-\L	4.f/	16e-\LL]	.	[4.cc\	mgle	.
.	.	.	16d\	.	.	.	.
.	8AA-\	.	16c\	.	.	.	.
.	.	.	16e-\	.	.	.	.
8A-/	8A-\J	.	16d\	.	.	.	.
.	.	.	16c\JJ	.	.	.	.
4E-/	8E-\L	4.g/	16e-\LL	.	4.cc\]	.	[[
.	.	.	16d\	.	.	.	.
.	8GG\	.	16c\	.	.	.	.
.	.	.	16e-\	.	.	.	.
8B-/	8B-\J	.	16d\	.	.	.	.
.	.	.	16c\JJ)	[[	.	.	.
=27	=27	=27	=27	=27	=27	=27	=27
!	!	!	!	!LO:HP:b=2	!	!	!
4C/	8C\L	(2.a-/	16f\LL	>	[4.dd\	wspo-	.
.	.	.	16d\	.	.	.	.
.	8FF\	.	16c\	.	.	.	.
.	.	.	16f\	.	.	.	.
8A-/	8A-\J	.	16d\	.	.	.	.
.	.	.	16c\JJ	.	.	.	.
!	!	!	!	!	!	!	!LO:DY:a
4C/	8C\L	.	16f\LL	.	8dd\]	.	>
.	.	.	16d\	.	.	.	.
.	8FF\	.	16c\	.	8cc\	-mnień	.
.	.	.	16f\	.	.	.	.
8A-/	8A-\J	.	16d\	.	8a-/	sze-	.
.	.	.	16c\JJ	.	.	.	.
4D/	8D\L	2.g/	16f\LL	.	4.g/	-re-	.
.	.	.	16d\	.	.	.	.
.	8GG\	.	16c\	.	.	.	.
.	.	.	16f\	.	.	.	.
8G/	8G\J	.	16d\	.	.	.	.
.	.	.	16c\JJ	.	.	.	.
4D/	8D\L	.	16f\LL	.	4.g/	-gi,	]
.	.	.	16d\	]	.	.	.
.	8GG\	.	16Bn\	.	.	.	.
.	.	.	16f\	.	.	.	.
8G/	8G\J	.	16d\	.	.	.	.
.	.	.	16B\JJ)	.	.	.	.
*v	*v	*	*	*	*	*	*
*	*v	*v	*	*	*	*
!!LO:LB:g=original
=28||	=28||	=28||	=28||	=28||	=28||
*k[]	*k[]	*	*k[]	*	*
*^	*^	*	*	*	*
!	!	!LO:TX:b:i:t=espress.	!	!LO:DY:a	!LO:TX:a:i:t=espress.	!	!
2.AA/	2.AA/	(8g/L	16g\LL	p	8g/	A	.
.	.	.	16c 16A\	.	.	.	.
.	.	8e/	16e\	.	8e/	więc	.
.	.	.	16c 16A\	.	.	.	.
.	.	8f/J	16f\	.	8f/	się	.
.	.	.	16cJJ 16A\	.	.	.	.
.	.	8a/L	16a\LL	.	8a/	ser-	.
.	.	.	16c 16A\	.	.	.	.
.	.	8g/	16g\	.	8g/	-cu	.
.	.	.	16c 16A\	.	.	.	.
.	.	8f/J)	16f\	.	8f/	nie	.
.	.	.	16cJJ 16A\	.	.	.	.
!LO:N:vis=2	!	!	!	!	!	!	!
8GG#X/L	2.GG#X\	[4.e/	16e\KL	.	2.e/	dziw,	.
.	.	.	8d 8B\	.	.	.	.
(<8D#X/	.	.	.	.	.	.	.
.	.	.	8d 8B\	.	.	.	.
8E/J	.	.	.	.	.	.	.
.	.	.	16dJk 16B\	.	.	.	.
8dn/L	.	16e/KL]	4.ryy	.	.	.	.
.	.	8e/	.	.	.	.	.
8c/	.	.	.	.	.	.	.
.	.	8e/	.	.	.	.	.
8B/J)	.	.	.	.	.	.	.
.	.	16e/Jk	.	.	.	.	.
=29	=29	=29	=29	=29	=29	=29	=29
2.AA/	2.AA/	(8g/L	16g\LL	.	8g/	ser-	.
.	.	.	16c 16A\	.	.	.	.
.	.	8e/	16e\	.	8e/	-cu	.
.	.	.	16c 16A\	.	.	.	.
.	.	8f/J	16f\	.	8f/	nie	.
.	.	.	16cJJ 16A\	.	.	.	.
.	.	8cc/L	16cc\LL	.	8cc\	dziw	.
.	.	.	16f 16c\	.	.	.	.
.	.	8b/	16b\	.	8b\	jeś-	.
.	.	.	16f 16c\	.	.	.	.
.	.	8a/J)	16a\	.	8a/	-li	.
.	.	.	16fJJ 16c\	.	.	.	.
!LO:N:vis=2	!	!	!	!	!	!	!
8BB/L	2.BB\	[4.g/	16e\KL	.	4.g/	ży-	.
.	.	.	8f 8d\	.	.	.	.
(<8F#X/	.	.	.	.	.	.	.
.	.	.	8f 8d\	.	.	.	.
8G/J	.	.	.	.	.	.	.
.	.	.	16fJk 16d\	.	.	.	.
8fn/L	.	16g/KL]	4.ryy	.	4g/	-czy	.
.	.	8g/	.	.	.	.	.
8e/	.	.	.	.	.	.	.
.	.	8g/	.	.	.	.	.
8d/J)	.	.	.	.	8g/	By	.
.	.	16gJk 16f/	.	.	.	.	.
*v	*v	*	*	*	*	*	*
*	*v	*v	*	*	*	*
!!LO:LB:g=original
=30	=30	=30	=30	=30	=30
4B-X: 4C: 4BB-X:\	4cc: 4g: 4e: 4c:/	.	8g/L	wresz-	.
.	.	.	8e/J	.	.
!	!	!	!	!	!LO:HP:a
8r	8r	<	8c/	zcie	<
4A: 4D: 4AA:\	4dd: 4f#X: 4c:/	.	8d/L	spa-	.
.	.	.	8e/J	.	.
8r	8r	.	8f#X/	-dły	.
4E: 4BBn: 4EE:/	4g: 4e: 4Bn: 4G:/	.	8a/L	za-	.
.	.	.	8g/J	.	.
8r	8r	.	8f#/	-po-	.
4D: 4GG: 4DD:/	4g: 4fn: 4B: 4G:/	.	8g/L	-mnie-	.
.	.	[	8a/J	.	.
8r	8r	.	8b\	-nia	[[
=31	=31	=31	=31	=31	=31
*^	*^	*	*	*	*
8qFF#X/	.	.	.	.	.	.	.
!	!	!	!	!LO:HP:t=cresc. sempre	!	!	!LO:DY:a
8EE/L	2.ryy	[4.dd/	2.d 2.c\	<	[4.dd\	śnie-	>
8DD/	.	.	.	.	.	.	.
8CC#X/J	.	.	.	.	.	.	.
8DD/L	.	8dd/L]	.	.	8dd\L]	.	.
8EE/	.	8ccn/	.	.	8cc\	.	.
8FFny/J	.	8a/J	.	.	8a\J	.	.
!LO:N:vis=2	!	!	!	!	!	!	!
8GG/L	2.GG\	[4.g/	16g\KL	.	4g/	-gi!	]
.	.	.	8e 8c 8G\	.	.	.	.
8Cn/	.	.	.	.	.	.	.
.	.	.	8e 8c 8G\	.	.	.	.
8E/J	.	.	.	.	8r	.	.
.	.	.	16eJk 16c 16G\	.	.	.	.
8F/L	.	4.g/]	16g\KL	.	4r	.	.
.	.	.	8d 8B 8G\	.	.	.	.
8D/	.	.	.	.	.	.	.
.	.	.	8d 8B 8G\	.	.	.	.
8F/J	.	.	.	.	8r	.	.
.	.	.	16dJk 16B 16G\	.	.	.	.
!!LO:PB:g=original
=32	=32	=32	=32	=32	=32	=32	=32
8AA/L	4.AA\	(8cc/L	16cc\LL	.	4r	.	.
.	.	.	16c\	.	.	.	.
8F/	.	8a/	16a\	.	.	.	.
.	.	.	16c\	.	.	.	.
8A/J	.	8f/J	16f\	.	8r	.	.
.	.	.	16c\JJ	.	.	.	.
8D\L	4.D/	8g/L	16g\LL	.	4r	.	.
.	.	.	16f 16B\	.	.	.	.
8G\	.	8a/	16a\	.	.	.	.
.	.	.	16f 16c\	.	.	.	.
!	!	!	!	!	!LO:TX:a:i:t=con gran espressione	!	!
8GG\J	.	8b/J	16b\	.	8b\	By	.
.	.	.	16fJJ 16d\)	.	.	.	.
8AA/L	4.AA\	(8dd/L	16dd\LL	.	8dd\L	wresz-	.
.	.	.	16e 16d\	.	.	.	.
8E/	.	8cc/	16cc\	.	8cc\J	.	.
.	.	.	16e 16c\	.	.	.	.
8A/J	.	8b/J	16b\	.	8b\	-cie	.
.	.	.	16eJJ 16B\	.	.	.	.
8BB-X/L	4.BB-\	4.cc/)	16cc\KL	.	8cc\L	spa-	.
.	.	.	8e 8c\	.	.	.	.
8C/	.	.	.	.	8dd\J	.	.
.	.	.	8e 8c\	.	.	.	.
8B-X/J	.	.	.	.	8ee\	-dły	.
.	.	.	16eJk 16c\	.	.	.	.
=33	=33	=33	=33	=33	=33	=33	=33
!	!	!	!	!	!	!	!LO:DY:a
8AA\L	4.AA/	4.cc/	16cc\KL	f	(4.ff\	za-	f
.	.	.	8f 8c\	.	.	.	.
8C\	.	.	.	.	.	.	.
.	.	.	8f 8c\	.	.	.	.
8A\J	.	.	.	.	.	.	.
.	.	.	16fJk 16c\	.	.	.	.
8GG\L	4.GG/	4.cc/	16cc\KL	.	4ee\)	.	.
.	.	.	8d 8c\	.	.	.	.
8C\	.	.	.	.	.	.	.
.	.	.	8d 8c\	.	.	.	.
8G\J	.	.	.	.	8ee\	-po-	.
.	.	.	16dJk 16c\	.	.	.	.
!LO:N:vis=2.	!	!	!LO:N:vis=2	!	!	!	!
8FF#X\L	2FF#/	2.cc/	16cc\KL	.	[4.dd\	-mnie-	.
.	.	.	8d 8c\	.	.	.	.
8D\	.	.	.	.	.	.	.
.	.	.	8d 8c\	.	.	.	.
8A\J	.	.	.	.	.	.	.
.	.	.	8d 8c\	.	.	.	.
8D\L	.	.	.	.	8dd\]	.	.
.	.	.	8d 8c\	.	.	.	.
8A\	4ryy	.	.	.	8cc\	-nia	.
.	.	.	8d 8c\	.	.	.	.
8D\J	.	.	.	.	8a/	by	.
.	.	.	16dJk 16c\	.	.	.	.
!!LO:LB:g=original
=34	=34	=34	=34	=34	=34	=34	=34
!LO:N:vis=2	!	!	!	!	!	!	!
8GG\L	2.GG/	4.cc/	16cc\KL	.	[4.cc\	spa-	.
.	.	.	8e 8c\	.	.	.	.
8C\	.	.	.	.	.	.	.
.	.	.	8e 8c\	.	.	.	.
8G\J	.	.	.	.	.	.	.
.	.	.	16eJk 16c\	.	.	.	.
8E\L	.	4.g/	16g\KL	.	8cc/L]	.	.
.	.	.	8e 8c 8G\	.	.	.	.
8C\	.	.	.	.	8e/J	.	.
.	.	.	8e 8c 8G\	.	.	.	.
8E\J	.	.	.	.	8f/	-dły	.
.	.	.	16eJk 16c 16G\	.	.	.	.
!LO:N:vis=2	!	!	!LO:N:vis=2	!	!	!	!LO:HP:b
8GG/L	2.GG\	2.g/	16g\KL	.	[4.g/	śnie-	>
.	.	.	8d 8c 8G\	.	.	.	.
8D/	.	.	.	.	.	.	.
.	.	.	8d 8c 8G\	.	.	.	.
8F/J	.	.	.	.	.	.	.
.	.	.	8d 8c 8G\	.	.	.	.
8D/L	.	.	.	.	8g/L]	.	.
.	.	.	8d 8c 8G\	.	.	.	.
8F/	.	.	.	.	8a/	.	.
.	.	.	8d 8c 8G\	.	.	.	.
8D/J	.	.	.	.	8g/J	.	.
.	.	.	16dJk 16c 16G\	.	.	.	]]
*v	*v	*	*	*	*	*	*
=35	=35	=35	=35	=35	=35	=35
8r	(4.cc 4.a-X\	2.ryy	pp	4c/	-gi	.
(8C\L	.	.	.	.	.	.
8c\J)	.	.	.	8r	.	.
8r	4.b 4.g/	.	.	4r	.	.
(8d\L	.	.	.	.	.	.
!	!	!	!LO:DY:a:t=poco sfz	!	!	!
8F\J)	.	.	sfz	8r	.	.
8r	[4.b-X/)	(4g-X^\	.	4r	.	.
!	!	!	!LO:HP:b=2	!	!	!
(8G-X\L	.	.	<	.	.	.
8d-X\J)	.	8f\	.	8b-X\	By	.
8r	8b-/L]	4.en\)	.	8b-/L	wresz-	.
(8c\L	8a-X/	.	.	8a-X/J	.	.
8C\J)	8g-/J	.	.	8g/	-cie	.
*	*v	*v	*	*	*	*
!!LO:LB:g=original
=36	=36	=36	=36	=36	=36
*^	*	*	*	*	*
8rBB	4.ryy	4.f 4.d-X/	.	4.f/	spa-	.
(8D-X\L	.	.	.	.	.	.
8A-X\J)	.	.	.	.	.	.
8ryy	8r	[4.e-X [4.c/	[	4.e-X/	-dły	.
*ped	*	*	*	*	*	*
!LO:N:vis=4	!	!	!LO:HP:b=2	!	!	!
[[<8AA-X/	8AA-X\L	.	>	.	.	.
!	!	!LO:TX:a:i:t=poco riten.	!	!LO:TX:a:i:t=poco riten.	!	!
[<8E-X/	8E-\J	.	.	.	.	.
[4.A- 4.E-_ 4.AA-__\	2.ryy	16e-]LL 16c/]	.	4r	.	.
.	.	(16c/	.	.	.	.
.	.	16e-/	.	.	.	.
.	.	16a-X/	.	.	.	.
.	.	16cc/	.	8r	.	.
.	.	16ee-X/JJ	.	.	.	.
8A-] 8E-\] 8AA-\]]	.	8aa-X\)	.	8r	.	.
*Xped	*	*	*	*	*	*
!	!	!LO:TX:b:i:t=a tempo	!	!LO:TX:a:i:t=a tempo	!	!LO:DY:a:rj
8r	.	8r	]	8cc\	za-	p
8r	.	8r	.	8cc\	-po-	.
=37	=37	=37	=37	=37	=37	=37
!	!	!	!	!	!	!LO:DY:a
8r	8ryy	4r	.	[2.dd\	-mnie-	<
*ped	*	*	*	*	*	*
!	!	!	!LO:HP:b=2	!	!	!
8FF/L	[4FF\	.	<	.	.	.
[<8C/J	.	8r	.	.	.	.
4.A-X 4.C/]	4.FF\]	16r	.	.	.	.
.	.	(16c/LL	.	.	.	.
.	.	16f/	.	.	.	.
.	.	16a-X/	.	.	.	.
.	.	16dd/	.	.	.	.
.	.	16a-/JJ)	.	.	.	.
!LO:N:vis=8	!	!	!	!	!	!
[[<16GG/	16GG\LL	8.r	.	4.dd\]	.	.
[<16D/	16D\JJ	.	.	.	.	.
[4G 4D_ 4GG__/	4ryy	.	.	.	.	.
.	.	(16B/LL	.	.	.	.
.	.	16f/	.	.	.	.
.	.	16a-/JJ	.	.	.	.
4.G] 4.D] 4.GG/]]	4.ryy	16dd/LL	.	4.g/	-nia	.
*Xped	*	*	*	*	*	*
.	.	16g/	[	.	.	.
.	.	16f#X/	.	.	.	[
.	.	16fn/	.	.	.	.
.	.	16e/	.	.	.	.
.	.	16d/JJ)	.	.	.	.
!!LO:LB:g=original
=38	=38	=38	=38	=38	=38	=38
*ped	*	*	*	*	*	*
!	!LO:N:vis=8	!	!	!	!	!
N([[<16CC/LL	16CC\	8.r	.	(2.ee\	śnie-	pp
[<16GG/JJ	16GG\	.	.	.	.	.
[4C 4GG_ 4CC__/	4ryy	.	.	.	.	.
*	*	*clefF4	*	*	*	*
.	.	16E\LL	.	.	.	.
.	.	16G\	.	.	.	.
.	.	16c\JJ	.	.	.	.
*	*	*clefG2	*	*	*	*
4.C_ 4.GG_ 4.CC/_	2.ryy	16e\LL	.	.	.	.
.	.	16g\	.	.	.	.
.	.	16cc\	.	.	.	.
.	.	16ee\	.	.	.	.
.	.	16gg\	.	.	.	.
.	.	16ccc\JJ	.	.	.	.
4C] 4GG] 4CC/]	.	4eee\N)	.	[2.cc\)	-gi	.
8r	.	8r	.	.	.	.
!	!	!	!LO:DY:b=2	!	!	!
[4.C [4.GG [4.CC/	4.ryy	(4.e 4.c (4.G/	ppp	.	.	.
*v	*v	*	*	*	*	*
=39	=39	=39	=39	=39	=39
2.C/] 2.GG] 2.CC/]	2.c) 2.G 2.E/)	.	4cc\]	.	.
*Xped	*	*	*	*	*
.	.	.	8r	.	.
.	.	.	4r	.	.
.	.	.	8r	.	.
==	==	==	==	==	==
*-	*-	*-	*-	*-	*-
!!!system-decoration: s1{(s2,s3)}
!!!RDF**kern: > = above
!!!RDF**kern: < = below
!!!RDF**kern: N = linked
!!!ENC: Marta Opryszak
!!!END: 2022-03-09
!!!ENC: Marta Lawrence
!!!END: 2022-03-18
!!!YEC: Copyright 2022 Narodowy Instytut Fryderyka Chopina (https://polishscores.org)
!!!YEM: License CC-BY-4.0 (https://creativecommons.org/licenses/by/4.0)
